packages/calcite-ui-icons/icons/select-root-chart-nodes-16.svg

<?xml version="1.0" encoding="UTF-8"?><svg id="icons" xmlns="http://www.w3.org/2000/svg" viewBox="0 0 16 16"><defs><style>.cls-1{fill:none;}.cls-2{fill-rule:evenodd;}</style></defs><path class="cls-2" d="M8.5,2.92499l-5.57501,5.57501,5.57501,5.57501,5.57501-5.57501-5.57501-5.57501ZM4.25,8.5l4.25-4.25,4.25,4.25-4.25,4.25-4.25-4.25ZM10,8.5l-1.5,1.5-1.5-1.5,1.5-1.5,1.5,1.5ZM5,2h-1v-1h1v1ZM8,2h-2v-1h2v1ZM13,1.99158h-1v-.98322h1v.98322ZM2,4.99158h-1v-.98322h1v.98322ZM11,2h-2v-1h2v1ZM2,3h-1V1h2v1h-1v1ZM2,15h1v1H1v-2h1v1ZM1.99994,12.99994H.99994v-1h1v1ZM2,11h-1v-2h1v2ZM2,8h-1v-2h1v2ZM15,12.00836h1v.98322h-1v-.98322ZM15,4h1v1h-1v-1ZM16,1v2h-1v-1h-1v-1h2ZM15,6h1v2h-1v-2ZM15,9h1v2h-1v-2ZM15,14h1v2h-2v-1h1v-1ZM11.99988,14.99988h1v1h-1v-1ZM9,15h2v1h-2v-1ZM4,15h1v1h-1v-1ZM6,15h2v1h-2v-1Z"/><rect class="cls-1" width="16" height="16"/></svg>

<svg xmlns="http://www.w3.org/2000/svg" viewBox="0 0 16 16"><path d="M8.5 2.925L2.925 8.5 8.5 14.075 14.075 8.5 8.5 2.925zM4.25 8.5L8.5 4.25l4.25 4.25-4.25 4.25L4.25 8.5zm5.75 0L8.5 10 7 8.5 8.5 7 10 8.5zM5 2H4V1h1v1zm3 0H6V1h2v1zm5-.008h-1v-.984h1v.984zm-11 3H1v-.984h1v.984zM11 2H9V1h2v1zM2 3H1V1h2v1H2v1zm0 12h1v1H1v-2h1v1zm0-2H1v-1h1v1zm0-2H1V9h1v2zm0-3H1V6h1v2zm13 4.008h1v.984h-1v-.984zM15 4h1v1h-1V4zm1-3v2h-1V2h-1V1h2zm-1 5h1v2h-1V6zm0 3h1v2h-1V9zm0 5h1v2h-2v-1h1v-1zm-3 1h1v1h-1v-1zm-3 0h2v1H9v-1zm-5 0h1v1H4v-1zm2 0h2v1H6v-1z" fill-rule="evenodd"/><path fill="none" d="M0 0h16v16H0z"/></svg>
